!!!OTL: 739. Geduld.
!!!ARE: Europa, Mitteleuropa, Deutschland
!!!SCT: B0739
!!!TXL: @@DE
!!!YEM: Copyright 1995, estate of Helmut Schaffrath.
**kern	**text
*ICvox	*
*Ivox	*
*clefG2	*
*M6/8	*
*k[f#]	*
*G:	*
!LO:TX:a:t=Mäßig langſam und ſanft.	!
{8d	Es
=1	=1
4b	ʒieht
8b	ein
4a	ſtil-
8a	-ler
=2	=2
4.g	En-
4f#}	-gel
{8f#	durch
=3	=3
4e	die-
8e	-ſes
8ccL	Er-
8bJ	.
8a	-den-
=4	=4
(4.g	-land,
4f#)}	.
{8a	ʒum
=5	=5
4b	Troſt
8b	für
4cc#	Er-
8cc#	-den-
=6	=6
4.dd	-män-
4a}	-gel
{8b/	hat
=7	=7
4a	ihn
8dd	der
4ee	Herr
8cc#	ge-
=8	=8
[4.dd	-ſandt.
8dd]	.
8r}	.
{8d	Jn
=9	=9
4cc	ſei-
8cc	-nem
8ccL	Blick
8bJ	.
8a	iſt
=10	=10
(4dd	Frie-
8cc)	.
4b}	-den
{8g	und
=11	=11
4ee	mil-
8dd	-de,
8ddL	ſanf-
8ccJ	.
8a	-te
=12	=12
(4.b/	Huld
8a)	.
8r}	.
{8a	o
=13	=13
4b	folg'
8b	ich
4g	ihm
8g	hie-
=14	=14
4.dd	-nie-
4b}	-den,
{8g	dem
=15	=15
8eeL	En-
8ccJ	.
8a	-gel
8gL	der
8aJ	.
8f#	Ge-
=16	=16
[4.dd	-duld,
4dd]}	.
{8g	dem
=17	=17
(8eeL	En-
16dd	.
16ccJ)	.
16bL	-gel
16aJ	.
8gL	der
8aJ	.
8f#	Ge-
=18	=18
[4.g	-duld!
8g]	.
8r}	.
==	==
!!!AGN: Moral - Lied, religioes
!!!GTL: Religioese Lieder
!!!ONB: ESAC (Essen Associative Code) Database: BOEHME
!!!AMT: compound duple
!!!AIN: vox
!!!EED: Helmut Schaffrath
!!!EEV: 1.0
!!Mel. : Du gehſt aus unſerm Kreiſe 1825 v. K. Dreiſt?
!!@@COMMENT:"Gedicht von Karl Johann Philipp Spitta 1833 in: "Pfalter und Harfe". Die vorſtehende
!!Melodie eines älteren geiſtl. Abſchiedsliedes hat Erk untergelegt (ſ. deſſen Germania" 259 und
!!Liederkranʒ" J. Nr. 47). Uebrigens iſt das Lied mehrfach komponirt und läßt ſich auch nach vielen
!!Choralweiſen ſingen, die daſſelbe Versmaß (Hildebrandſtrophe) haben."
!!@@END:
!!!Text: K. J. Ph. Spitta
!!!URL-scan: https://archive.org/details/BoehmeVtLieder1895/page/n593/mode/2up
!!!ENC: Anna Maria Matuszewska
!!!EEV: 2024/18/07
*-	*-
